!!! OTL: Literature16
!!! Chapter: 5
!!! Section: I
!!! Page: 348
!!! Mode: 
!!! Encoder: DJB
**kern
*staff1
*I"Piano
=1-
*clefG2
*k[b-e-a-]
*E-:
*M3/4
2e-/
4B-/
=2
4g/
4f/
4e-/
=3
8d/L
8f/J
8a-/L
8g/J
8f/L
8e-/J
=4
2.d/
=5
2f/
4B-/
=6
4a-/
4g/
4f/
=7
8e-/L
8g/J
8b-/L
8g/J
8a-/L
8f/J
=8
2.e-/
==
*-
